X: 0137
T: Queen Victoria - 8x32R
P: Cumming
C: Nan Main
B: Miss Milligan's Miscellany v.1 #37
B: Originally Ours v.1 p.178 #MMM-0137
Z: 2019 John Chambers <jc:trillian.mit.edu>
M: 4/4
L: 1/8
R: reel
K: C
%
|: "(Am)"A2 |\
"C"GAcd "E/C"e2ag | "G7"f2dc "B/G7"B3G | "F"Ac"G"Bd "Am"ce"Dm"da | "G7"g2de "C"c2"F"A2 |\
"C"GAcd "E/C"e2ag | "G7"f2dc "B/G7"B3G | "F"Ac"G"Bd "Am"ce"Dm"da | "G7"f2de "C"c2 ||
e2 |\
"Am"efea "G#/D7"^g2ef | "E7"efeb "Am"a2ab | "E/Am"c'2ba "F/Dm"f2af | "E7"e2Bc "Am"A2"G7"fg |\
"E/C"gaec' "D/G7"b2ga | "G"gagd' "E/C"c'3c' | "F/G7"afdb "E/C"geca | "D/G7"fdBg "C"c2 :|
